X:338
T:Reel 338
M:4/4
K:Dmaj
L:1/8
dc|B>E (3EEE BdcA|BEED AcdcBc|BABG A2AF|EDEF D2:|dc|defd cdec|Beef gfec|defd c2ed|Beec d2de|Bded efed|Beef g2ag|fgfd edef|gece d2|
